dist/images/icons/instagram.svg

<svg width="20" height="20" viewBox="0 0 20 20" fill="none" xmlns="http://www.w3.org/2000/svg">
<path d="M9.74758 6.49853C7.95724 6.49853 6.49619 7.95958 6.49619 9.74992C6.49619 11.5403 7.95724 13.0013 9.74758 13.0013C11.5379 13.0013 12.999 11.5403 12.999 9.74992C12.999 7.95958 11.5379 6.49853 9.74758 6.49853ZM19.4993 9.74992C19.4993 8.40351 19.5115 7.06929 19.4359 5.72532C19.3603 4.16427 19.0041 2.77883 17.8626 1.63731C16.7187 0.493349 15.3357 0.139673 13.7746 0.0640594C12.4282 -0.0115542 11.094 0.000641587 9.75002 0.000641587C8.40361 0.000641587 7.06939 -0.0115542 5.72542 0.0640594C4.16437 0.139673 2.77893 0.495788 1.63741 1.63731C0.493449 2.78127 0.139772 4.16427 0.0641586 5.72532C-0.011455 7.07173 0.000740769 8.40595 0.000740769 9.74992C0.000740769 11.0939 -0.011455 12.4305 0.0641586 13.7745C0.139772 15.3356 0.495888 16.721 1.63741 17.8625C2.78137 19.0065 4.16437 19.3602 5.72542 19.4358C7.07183 19.5114 8.40604 19.4992 9.75002 19.4992C11.0964 19.4992 12.4306 19.5114 13.7746 19.4358C15.3357 19.3602 16.7211 19.004 17.8626 17.8625C19.0066 16.7186 19.3603 15.3356 19.4359 13.7745C19.5139 12.4305 19.4993 11.0963 19.4993 9.74992ZM9.74758 14.7526C6.97914 14.7526 4.74488 12.5183 4.74488 9.74992C4.74488 6.98148 6.97914 4.74722 9.74758 4.74722C12.516 4.74722 14.7503 6.98148 14.7503 9.74992C14.7503 12.5183 12.516 14.7526 9.74758 14.7526ZM14.9552 5.71069C14.3088 5.71069 13.7868 5.18871 13.7868 4.54234C13.7868 3.89596 14.3088 3.37398 14.9552 3.37398C15.6015 3.37398 16.1235 3.89596 16.1235 4.54234C16.1237 4.69582 16.0936 4.84783 16.035 4.98967C15.9763 5.13151 15.8903 5.26038 15.7817 5.36891C15.6732 5.47744 15.5443 5.5635 15.4025 5.62214C15.2607 5.68079 15.1086 5.71088 14.9552 5.71069Z" fill="#31352B"/>
</svg>

<svg width="20" height="20" fill="none" xmlns="http://www.w3.org/2000/svg"><path d="M9.748 6.499a3.258 3.258 0 00-3.252 3.25 3.258 3.258 0 003.252 3.252 3.258 3.258 0 003.251-3.251 3.258 3.258 0 00-3.251-3.251zm9.751 3.25c0-1.345.013-2.68-.063-4.024-.076-1.56-.432-2.946-1.573-4.088C16.719.493 15.336.14 13.775.064 12.428-.012 11.094.001 9.75.001 8.404 0 7.07-.012 5.725.064 4.165.14 2.78.496 1.637 1.637.493 2.781.14 4.164.064 5.725-.01 7.072.001 8.406.001 9.75c0 1.344-.012 2.68.063 4.024.076 1.562.432 2.947 1.573 4.089 1.144 1.143 2.527 1.497 4.088 1.573 1.347.075 2.681.063 4.025.063 1.346 0 2.68.012 4.025-.063 1.56-.076 2.946-.432 4.088-1.573 1.144-1.144 1.497-2.527 1.573-4.088.078-1.345.063-2.679.063-4.025zm-9.751 5.004A4.996 4.996 0 014.745 9.75a4.996 4.996 0 015.003-5.003A4.996 4.996 0 0114.75 9.75a4.996 4.996 0 01-5.002 5.003zm5.207-9.042a1.167 1.167 0 01-1.168-1.169 1.167 1.167 0 111.995.827 1.167 1.167 0 01-.827.342z" fill="#31352B"/></svg>
